images/simple-way1.svg

<svg width="30" height="30" viewBox="0 0 30 30" fill="none" xmlns="http://www.w3.org/2000/svg">
<rect width="30" height="30" rx="3" fill="white"/>
<path d="M15.3839 10.125C16.2553 9.76315 16.7238 8.92064 16.5119 8.09671C16.3001 7.27278 15.4645 6.6875 14.5 6.6875C13.5356 6.6875 12.7 7.27278 12.488 8.09671C12.2763 8.92064 12.7448 9.76315 13.6162 10.125H15.3839Z" fill="#F98AAB"/>
<path d="M12.1624 10.8125C12.0865 10.8125 12.0139 10.7794 11.9619 10.7209C10.8196 9.44293 10.7583 7.46537 11.8187 6.11084C11.8804 6.02802 11.9798 5.98694 12.0784 6.00369C12.1769 6.02043 12.2591 6.09226 12.2931 6.19143C12.3271 6.29061 12.3078 6.40142 12.2424 6.4811C11.3585 7.60994 11.4102 9.25832 12.3628 10.3228C12.4379 10.4072 12.4585 10.5308 12.4149 10.6373C12.3713 10.7437 12.2721 10.8125 12.1624 10.8125Z" fill="#F98AAB"/>
<path d="M17.2669 9.4375C17.1613 9.4375 17.0635 9.39302 17.0085 9.32017C16.9535 9.2472 16.9493 9.15647 16.9974 9.08053C17.5498 8.21095 17.4079 7.15869 16.6366 6.40589C16.5646 6.33867 16.5432 6.24518 16.5807 6.16151C16.6184 6.07784 16.709 6.01724 16.8176 6.00311C16.9262 5.98898 17.0358 6.02364 17.1039 6.09351C18.0295 6.9972 18.1998 8.26018 17.537 9.30416C17.4851 9.38617 17.3807 9.43761 17.2669 9.4375Z" fill="#F98AAB"/>
<path d="M19.9998 13.8648V18.2986C19.9998 18.2986 19.9998 19.8082 19.0812 20.6822C18.9771 20.7858 18.9194 20.9301 18.9222 21.0799V21.9397C18.9213 22.2487 18.6806 22.499 18.3833 22.5H14.0727C13.7754 22.499 13.5347 22.2487 13.5339 21.9397V21.8361C13.5343 21.3871 13.3604 20.9568 13.0516 20.643C12.5315 20.1164 11.7287 19.2061 11.3785 18.2986C10.8396 16.8981 9.762 14.9374 9.22319 14.3773C8.68437 13.8171 9.22319 13.2569 9.762 13.2569C10.3008 13.2569 11.3785 14.3773 11.9173 15.2176C12.0888 15.488 12.2895 15.737 12.5154 15.9598C12.6495 16.0894 12.8379 16.1391 13.0152 16.0914C13.1925 16.0438 13.3341 15.9055 13.391 15.7245C13.4936 15.3792 13.5419 15.0188 13.5339 14.6574V8.21532C13.5322 7.85928 13.7489 7.54156 14.0727 7.42544C14.1587 7.39153 14.25 7.37451 14.342 7.37501C14.7884 7.37501 15.1503 7.75123 15.1503 8.21532V11.5764C15.1486 11.2203 15.3653 10.9027 15.6891 10.7866C15.7752 10.7526 15.8666 10.7355 15.9586 10.7361C16.4049 10.7361 16.7668 11.1124 16.7668 11.5764V12.4166C16.7668 12.1939 16.8521 11.9801 17.0039 11.8229C17.0883 11.7338 17.1916 11.6666 17.3056 11.6269C17.3917 11.593 17.483 11.5758 17.5751 11.5764C18.0215 11.5764 18.3833 11.9527 18.3833 12.4166V13.8171C18.3833 13.5943 18.4686 13.3806 18.6204 13.2234C18.7047 13.1343 18.8082 13.0671 18.9222 13.0272C19.0272 12.9871 19.1392 12.9709 19.2508 12.9797C19.6836 13.0277 20.0091 13.4123 19.9998 13.8648Z" fill="#F98AAB"/>
<path d="M14.515 7.39259C14.4202 7.39209 14.3261 7.40895 14.2376 7.44256C13.904 7.55761 13.6808 7.87241 13.6825 8.22519V14.6082C13.6908 14.9662 13.641 15.3234 13.5354 15.6656C13.4916 15.7941 13.4029 15.9025 13.2856 15.9709C13.4299 16.0556 13.6047 16.0703 13.7611 16.011C13.9176 15.9516 14.0387 15.8246 14.0904 15.6656C14.1961 15.3234 14.2458 14.9662 14.2376 14.6082V8.22519C14.2358 7.87241 14.459 7.55761 14.7926 7.44256C14.7039 7.40895 14.6098 7.39209 14.515 7.39259Z" fill="#F8EDF0"/>
<path d="M15.9032 10.7726C15.5696 10.8876 15.3464 11.2023 15.3482 11.5552V14.0529C15.3482 14.2062 15.4725 14.3304 15.6257 14.3304C15.7789 14.3304 15.9032 14.2062 15.9032 14.0529V11.5552C15.9016 11.2023 16.1247 10.8876 16.4582 10.7726C16.2792 10.706 16.0822 10.706 15.9032 10.7726Z" fill="#F8EDF0"/>
<path d="M17.5711 11.6056C17.4537 11.645 17.3473 11.7115 17.2603 11.7999C17.1041 11.9556 17.0161 12.1674 17.0161 12.3881V14.0533C17.0161 14.2066 17.1404 14.3308 17.2937 14.3308C17.447 14.3308 17.5711 14.2066 17.5711 14.0533V12.3881C17.5695 12.0353 17.7928 11.7207 18.1263 11.6056C17.9473 11.539 17.7503 11.539 17.5711 11.6056Z" fill="#F8EDF0"/>
<path d="M19.5127 12.9429C19.418 12.9423 19.3238 12.9591 19.2352 12.9927C19.1178 13.0322 19.0112 13.0988 18.9244 13.1871C18.768 13.3429 18.6802 13.5546 18.6802 13.7754V14.3304C18.6802 14.4837 18.8043 14.608 18.9576 14.608C19.1109 14.608 19.2352 14.4837 19.2352 14.3304V13.7754C19.2335 13.4226 19.4567 13.1079 19.7902 12.9927C19.7015 12.9591 19.6075 12.9423 19.5127 12.9429Z" fill="#F8EDF0"/>
<path d="M18.9688 15.625C18.779 15.625 18.625 15.7405 18.625 15.8829V17.4296C18.625 17.572 18.779 17.6875 18.9688 17.6875C19.1587 17.6875 19.3125 17.572 19.3125 17.4296V15.8829C19.3125 15.7405 19.1587 15.625 18.9688 15.625Z" fill="#F8EDF0"/>
<path d="M19.09 18.375C18.967 18.3779 18.8657 18.5214 18.856 18.7061C18.839 18.8807 18.7818 19.0408 18.6947 19.1588C18.6353 19.2451 18.6116 19.373 18.6324 19.4931C18.6533 19.6134 18.7157 19.7074 18.7954 19.7388C18.8752 19.7702 18.9601 19.7345 19.0174 19.645C19.1911 19.4029 19.2967 19.0697 19.3125 18.714C19.3123 18.5284 19.2132 18.3775 19.09 18.375Z" fill="#F8EDF0"/>
<path d="M14.9583 21.125H14.7292C14.6026 21.125 14.5 21.2788 14.5 21.4687C14.5 21.6585 14.6026 21.8125 14.7292 21.8125H14.9583C15.0849 21.8125 15.1875 21.6585 15.1875 21.4687C15.1875 21.2788 15.0849 21.125 14.9583 21.125Z" fill="#F8EDF0"/>
<path d="M17.7084 21.125H16.1042C15.9776 21.125 15.875 21.2788 15.875 21.4687C15.875 21.6585 15.9776 21.8125 16.1042 21.8125H17.7084C17.835 21.8125 17.9375 21.6585 17.9375 21.4687C17.9375 21.2788 17.835 21.125 17.7084 21.125Z" fill="#F8EDF0"/>
</svg>

<svg xmlns="http://www.w3.org/2000/svg" width="30" height="30" fill="none"><rect width="30" height="30" fill="#fff" rx="3"/><path fill="#F98AAB" d="M15.384 10.125c.871-.362 1.34-1.204 1.128-2.028-.212-.824-1.048-1.41-2.012-1.41s-1.8.586-2.012 1.41c-.212.824.257 1.666 1.128 2.028h1.768Z"/><path fill="#F98AAB" d="M12.162 10.813a.268.268 0 0 1-.2-.092c-1.142-1.278-1.204-3.256-.143-4.61a.268.268 0 0 1 .26-.107c.098.016.18.088.214.187.034.1.015.21-.05.29-.885 1.129-.833 2.777.12 3.842a.303.303 0 0 1 .052.314.275.275 0 0 1-.253.175ZM17.267 9.438a.324.324 0 0 1-.258-.118.205.205 0 0 1-.012-.24c.553-.869.41-1.921-.36-2.674a.21.21 0 0 1-.056-.244.296.296 0 0 1 .237-.159.343.343 0 0 1 .286.09c.925.904 1.096 2.167.433 3.211a.318.318 0 0 1-.27.133Z"/><path fill="#F98AAB" d="M20 13.865v4.434s0 1.51-.919 2.383a.547.547 0 0 0-.159.398v.86c0 .309-.241.559-.539.56h-4.31a.551.551 0 0 1-.54-.56v-.104a1.7 1.7 0 0 0-.481-1.193c-.52-.527-1.323-1.437-1.673-2.344-.54-1.4-1.617-3.362-2.156-3.922-.539-.56 0-1.12.539-1.12s1.617 1.12 2.155 1.96c.172.271.373.52.598.743.134.13.323.18.5.131a.546.546 0 0 0 .376-.367c.103-.345.15-.705.143-1.067V8.215a.83.83 0 0 1 .808-.84c.446 0 .808.376.808.84v3.361a.83.83 0 0 1 .809-.84c.446 0 .808.376.808.84v.84c0-.222.085-.436.237-.593a.76.76 0 0 1 .302-.196.722.722 0 0 1 .27-.05c.445 0 .807.376.807.84v1.4c0-.223.086-.436.237-.594a.763.763 0 0 1 .302-.196.754.754 0 0 1 .329-.047c.433.048.758.432.749.885Z"/><path fill="#F8EDF0" d="M14.515 7.393a.77.77 0 0 0-.277.05.824.824 0 0 0-.556.782v6.383c.009.358-.041.715-.147 1.058a.564.564 0 0 1-.25.305.552.552 0 0 0 .805-.305c.106-.343.156-.7.148-1.058V8.225a.823.823 0 0 1 .555-.782.772.772 0 0 0-.278-.05ZM15.903 10.773a.823.823 0 0 0-.555.782v2.498a.278.278 0 0 0 .555 0v-2.498a.824.824 0 0 1 .555-.782.796.796 0 0 0-.555 0ZM17.571 11.606a.83.83 0 0 0-.555.782v1.665a.278.278 0 0 0 .555 0v-1.665a.824.824 0 0 1 .555-.782.796.796 0 0 0-.555 0ZM19.513 12.943a.77.77 0 0 0-.278.05.83.83 0 0 0-.555.783v.554a.277.277 0 1 0 .555 0v-.555a.824.824 0 0 1 .555-.782.77.77 0 0 0-.277-.05ZM18.969 15.625c-.19 0-.344.116-.344.258v1.547c0 .142.154.258.344.258.19 0 .343-.116.343-.258v-1.547c0-.142-.153-.258-.343-.258ZM19.09 18.375c-.123.003-.224.146-.234.331a.92.92 0 0 1-.161.453.469.469 0 0 0-.063.334c.021.12.084.214.163.246.08.031.165-.005.222-.094.174-.242.28-.575.296-.931 0-.186-.1-.336-.223-.339ZM14.958 21.125h-.229c-.126 0-.229.154-.229.344 0 .19.103.343.23.343h.228c.127 0 .23-.154.23-.343 0-.19-.103-.344-.23-.344ZM17.708 21.125h-1.604c-.126 0-.229.154-.229.344 0 .19.103.343.23.343h1.603c.127 0 .23-.154.23-.343 0-.19-.103-.344-.23-.344Z"/></svg>
